X:41
T:Sir Edwards of Woodlands Jigg. RH.041
R:Jig
S:Rev.R.Harrison’s MS,c1815,Cumbria
O:England
A:Temple Sowerby,Cumbria
Z:vmp.Simon Wilson. Review PJH, 2008.
M:6/8
L:1/8
Q:3/8=120
K:D
B|AFD DFD|dBd AFD|GBG FAF|BGE E2B|!
AFD DFA|dcd AFD|GBG EFG|AFDD2:|!
g|f2d dfd|BdB AFD|GBG FAF|BGE E2g|!
f2d dfd|BdB AFD|GBG EFG|AFD D2|]

